X: 27059
T: Miss Ivory Of Brewlands
R: strathspey
M: 4/4
K: Amajor
e|a<A A>B c<ea2|(3fga c>AB2e2|a<A A>B c<ea2|e>c' a<eb3a|
A<A A>B c<ea2|a<A A>B c<ea2|(3fga c>AB2e2|a<A A>B c<ea2|
e>c' b<ga4|f>e d<f e>cA2|A,>B, C>E A>B c<e|f>e d<f e>c A>c|
B2B2e3d|f>e d<f e>cA2|A,>B, C>E A>B c<e|a<A A>B c<ea2|e>c' b<ga4||

